src/status/22/feather.svg

<svg width="22" height="22" viewBox="0 0 22 22" xmlns="http://www.w3.org/2000/svg" xmlns:xlink="http://www.w3.org/1999/xlink">
 <defs>
  <filter id="filter-remove-color" x="0%" y="0%" width="100%" height="100%">
   <feColorMatrix color-interpolation-filters="sRGB" values="0 0 0 0 1 0 0 0 0 1 0 0 0 0 1 0 0 0 1 0"/>
  </filter>
  <mask id="mask-0">
   <g filter="url(#filter-remove-color)">
    <rect x="-2.2" y="-2.2" width="26.4" height="26.4" fill="rgb(0%, 0%, 0%)" fill-opacity=".85"/>
   </g>
  </mask>
  <clipPath id="clip-0">
   <rect width="22" height="22"/>
  </clipPath>
  <g id="source-5" clip-path="url(#clip-0)">
   <path d="m13.671875 12.347656c-0.785156-0.578125-1.464844-1.101562-2.0625-1.582031l-0.0625 3.859375-4.140625 0.890625c0.902344 0.605469 1.910156 1.167969 3.039062 1.675781l3.375-1.40625z" fill="rgb(81.568629%, 52.941179%, 43.921569%)"/>
  </g>
  <mask id="mask-1">
   <g filter="url(#filter-remove-color)">
    <rect x="-2.2" y="-2.2" width="26.4" height="26.4" fill="rgb(0%, 0%, 0%)" fill-opacity=".7"/>
   </g>
  </mask>
  <clipPath id="clip-1">
   <rect width="22" height="22"/>
  </clipPath>
  <g id="source-8" clip-path="url(#clip-1)">
   <path d="m9.710938 9.132812-1.074219 3.503907-3.894531 0.699219c0.777343 0.773437 1.65625 1.503906 2.664062 2.179687l4.140625-0.890625 0.0625-3.859375c-0.746094-0.597656-1.367187-1.132813-1.898437-1.632813z" fill="rgb(81.568629%, 52.941179%, 43.921569%)"/>
  </g>
  <mask id="mask-2">
   <g filter="url(#filter-remove-color)">
    <rect x="-2.2" y="-2.2" width="26.4" height="26.4" fill="rgb(0%, 0%, 0%)" fill-opacity=".6"/>
   </g>
  </mask>
  <clipPath id="clip-2">
   <rect width="22" height="22"/>
  </clipPath>
  <g id="source-11" clip-path="url(#clip-2)">
   <path d="m7.816406 7.136719-1.753906 2.988281-3.378906 0.785156c0.605468 0.839844 1.28125 1.652344 2.058594 2.425782l3.894531-0.699219 1.074219-3.503907c-0.757813-0.710937-1.347657-1.347656-1.894532-1.996093z" fill="rgb(81.568629%, 52.941179%, 43.921569%)"/>
  </g>
  <mask id="mask-3">
   <g filter="url(#filter-remove-color)">
    <rect x="-2.2" y="-2.2" width="26.4" height="26.4" fill="rgb(0%, 0%, 0%)" fill-opacity=".5"/>
   </g>
  </mask>
  <clipPath id="clip-3">
   <rect width="22" height="22"/>
  </clipPath>
  <g id="source-14" clip-path="url(#clip-3)">
   <path d="m6.496094 5.480469-2.023438 2.621093-3.082031 0.8125c0.394531 0.675782 0.824219 1.34375 1.292969 1.996094l3.378906-0.785156 1.753906-2.988281c-0.441406-0.527344-0.859375-1.066407-1.320312-1.65625z" fill="rgb(81.568629%, 52.941179%, 43.921569%)"/>
  </g>
  <mask id="mask-4">
   <g filter="url(#filter-remove-color)">
    <rect x="-2.2" y="-2.2" width="26.4" height="26.4" fill="rgb(0%, 0%, 0%)" fill-opacity=".4"/>
   </g>
  </mask>
  <clipPath id="clip-4">
   <rect width="22" height="22"/>
  </clipPath>
  <g id="source-17" clip-path="url(#clip-4)">
   <path d="m2.171875 2.707031c-0.21875 0.003907-0.414063 0.046875-0.582031 0.148438-1.011719 0.613281-0.921875 4.757812-0.921875 4.757812 0.230469 0.433594 0.472656 0.871094 0.722656 1.300781l3.082031-0.8125 2.023438-2.621093c-0.300782-0.390625-0.621094-0.804688-0.980469-1.257813 0 0-2.023437-1.539062-3.34375-1.515625z" fill="rgb(81.568629%, 52.941179%, 43.921569%)"/>
  </g>
  <mask id="mask-5">
   <g filter="url(#filter-remove-color)">
    <rect x="-2.2" y="-2.2" width="26.4" height="26.4" fill="rgb(0%, 0%, 0%)" fill-opacity=".85"/>
   </g>
  </mask>
  <clipPath id="clip-5">
   <rect width="22" height="22"/>
  </clipPath>
  <g id="source-20" clip-path="url(#clip-5)">
   <path d="m13.671875 12.347656c-0.785156-0.578125-1.464844-1.101562-2.0625-1.582031l-0.0625 3.859375-4.140625 0.890625c0.902344 0.605469 1.910156 1.167969 3.039062 1.675781l3.375-1.40625z" fill="rgb(81.568629%, 52.941179%, 43.921569%)"/>
  </g>
  <mask id="mask-6">
   <g filter="url(#filter-remove-color)">
    <rect x="-2.2" y="-2.2" width="26.4" height="26.4" fill="rgb(0%, 0%, 0%)" fill-opacity=".7"/>
   </g>
  </mask>
  <clipPath id="clip-6">
   <rect width="22" height="22"/>
  </clipPath>
  <g id="source-23" clip-path="url(#clip-6)">
   <path d="m9.710938 9.132812-1.074219 3.503907-3.894531 0.699219c0.777343 0.773437 1.65625 1.503906 2.664062 2.179687l4.140625-0.890625 0.0625-3.859375c-0.746094-0.597656-1.367187-1.132813-1.898437-1.632813z" fill="rgb(81.568629%, 52.941179%, 43.921569%)"/>
  </g>
  <mask id="mask-7">
   <g filter="url(#filter-remove-color)">
    <rect x="-2.2" y="-2.2" width="26.4" height="26.4" fill="rgb(0%, 0%, 0%)" fill-opacity=".6"/>
   </g>
  </mask>
  <clipPath id="clip-7">
   <rect width="22" height="22"/>
  </clipPath>
  <g id="source-26" clip-path="url(#clip-7)">
   <path d="m7.816406 7.136719-1.753906 2.988281-3.378906 0.785156c0.605468 0.839844 1.28125 1.652344 2.058594 2.425782l3.894531-0.699219 1.074219-3.503907c-0.757813-0.710937-1.347657-1.347656-1.894532-1.996093z" fill="rgb(81.568629%, 52.941179%, 43.921569%)"/>
  </g>
  <mask id="mask-8">
   <g filter="url(#filter-remove-color)">
    <rect x="-2.2" y="-2.2" width="26.4" height="26.4" fill="rgb(0%, 0%, 0%)" fill-opacity=".5"/>
   </g>
  </mask>
  <clipPath id="clip-8">
   <rect width="22" height="22"/>
  </clipPath>
  <g id="source-29" clip-path="url(#clip-8)">
   <path d="m6.496094 5.480469-2.023438 2.621093-3.082031 0.8125c0.394531 0.675782 0.824219 1.34375 1.292969 1.996094l3.378906-0.785156 1.753906-2.988281c-0.441406-0.527344-0.859375-1.066407-1.320312-1.65625z" fill="rgb(81.568629%, 52.941179%, 43.921569%)"/>
  </g>
  <mask id="mask-9">
   <g filter="url(#filter-remove-color)">
    <rect x="-2.2" y="-2.2" width="26.4" height="26.4" fill="rgb(0%, 0%, 0%)" fill-opacity=".4"/>
   </g>
  </mask>
  <clipPath id="clip-9">
   <rect width="22" height="22"/>
  </clipPath>
  <g id="source-32" clip-path="url(#clip-9)">
   <path d="m2.171875 2.707031c-0.21875 0.003907-0.414063 0.046875-0.582031 0.148438-1.011719 0.613281-0.921875 4.757812-0.921875 4.757812 0.230469 0.433594 0.472656 0.871094 0.722656 1.300781l3.082031-0.8125 2.023438-2.621093c-0.300782-0.390625-0.621094-0.804688-0.980469-1.257813 0 0-2.023437-1.539062-3.34375-1.515625z" fill="rgb(81.568629%, 52.941179%, 43.921569%)"/>
  </g>
 </defs>
 <path d="m1.589844 2.855469c-1.011719 0.613281-0.921875 4.757812-0.921875 4.757812 2.109375 3.996094 4.964843 7.800781 11.117187 10.132813 0 0 2.25-0.175782 2.988282-1.113282 0.5625-0.71875 0.074218-3.433593 0.074218-3.433593-6.140625-4.382813-6.738281-5.714844-9.335937-8.976563 0 0-2.738281-2.082031-3.921875-1.367187z" fill="rgb(18.039216%, 20.392157%, 25.098041%)"/>
 <g mask="url(#mask-0)">
  <use xlink:href="#source-5"/>
 </g>
 <path d="m13.671875 12.347656 0.148437 3.4375-3.375 1.40625c0.429688 0.195313 0.875 0.378906 1.339844 0.554688 0 0 2.25-0.175782 2.988282-1.113282 0.566406-0.71875 0.074218-3.433593 0.074218-3.433593-0.417968-0.296875-0.808594-0.578125-1.175781-0.851563z" fill="rgb(81.568629%, 52.941179%, 43.921569%)"/>
 <g mask="url(#mask-1)">
  <use xlink:href="#source-8"/>
 </g>
 <g mask="url(#mask-2)">
  <use xlink:href="#source-11"/>
 </g>
 <g mask="url(#mask-3)">
  <use xlink:href="#source-14"/>
 </g>
 <g mask="url(#mask-4)">
  <use xlink:href="#source-17"/>
 </g>
 <g mask="url(#mask-5)">
  <use xlink:href="#source-20"/>
 </g>
 <path d="m13.671875 12.347656 0.148437 3.4375-3.375 1.40625c0.429688 0.195313 0.875 0.378906 1.339844 0.554688 0 0 2.25-0.175782 2.988282-1.113282 0.566406-0.71875 0.074218-3.433593 0.074218-3.433593-0.417968-0.296875-0.808594-0.578125-1.175781-0.851563z" fill="rgb(81.568629%, 52.941179%, 43.921569%)"/>
 <g mask="url(#mask-6)">
  <use xlink:href="#source-23"/>
 </g>
 <g mask="url(#mask-7)">
  <use xlink:href="#source-26"/>
 </g>
 <g mask="url(#mask-8)">
  <use xlink:href="#source-29"/>
 </g>
 <g mask="url(#mask-9)">
  <use xlink:href="#source-32"/>
 </g>
 <path transform="matrix(1.528871 0 0 1.528871 -31.609752 -1.899198)" d="m21.761089 3.268329c1.903467 5.618421 8.577099 8.853037 8.577099 8.853037l4.422686 1.584093" fill="none" stroke="rgb(18.039216%, 20.392157%, 25.098041%)" stroke-linecap="round" stroke-width=".31167"/>
 <path transform="matrix(1.528871 0 0 1.528871 -31.609752 -1.899198)" d="m31.099574 12.39475c0.332149-0.597867 0.258054-2.008221 0.258054-2.008221" fill="none" stroke="rgb(18.039216%, 20.392157%, 25.098041%)" stroke-linecap="round" stroke-width=".31167"/>
 <path transform="matrix(1.528871 0 0 1.528871 -31.609752 -1.899198)" d="m31.684667 12.604259c0.577427-1.303044 0.196734-2.815598 0.196734-2.815598" fill="none" stroke="rgb(18.039216%, 20.392157%, 25.098041%)" stroke-linecap="round" stroke-width=".31167"/>
 <path transform="matrix(1.528871 0 0 1.528871 -31.609752 -1.899198)" d="m30.660116 12.236341c-0.436903 0.661742-1.650523 1.213619-1.650523 1.213619" fill="none" stroke="rgb(18.039216%, 20.392157%, 25.098041%)" stroke-linecap="round" stroke-width=".31167"/>
 <path transform="matrix(1.528871 0 0 1.528871 -31.609752 -1.899198)" d="m31.329523 12.47651c-0.723062 0.861031-1.12675 1.037325-1.12675 1.037325" fill="none" stroke="rgb(18.039216%, 20.392157%, 25.098041%)" stroke-linecap="round" stroke-width=".31167"/>
</svg>

<svg xmlns="http://www.w3.org/2000/svg" xmlns:xlink="http://www.w3.org/1999/xlink" width="22" height="22" viewBox="0 0 22 22">
<defs>
<filter id="filter-remove-color" x="0%" y="0%" width="100%" height="100%">
<feColorMatrix color-interpolation-filters="sRGB" values="0 0 0 0 1 0 0 0 0 1 0 0 0 0 1 0 0 0 1 0" />
</filter>
<mask id="mask-0">
<g filter="url(#filter-remove-color)">
<rect x="-2.2" y="-2.2" width="26.4" height="26.4" fill="rgb(0%, 0%, 0%)" fill-opacity="0.85"/>
</g>
</mask>
<clipPath id="clip-0">
<rect x="0" y="0" width="22" height="22"/>
</clipPath>
<g id="source-5" clip-path="url(#clip-0)">
<path fill-rule="nonzero" fill="rgb(81.568629%, 52.941179%, 43.921569%)" fill-opacity="1" d="M 13.671875 12.347656 C 12.886719 11.769531 12.207031 11.246094 11.609375 10.765625 L 11.546875 14.625 L 7.40625 15.515625 C 8.308594 16.121094 9.316406 16.683594 10.445312 17.191406 L 13.820312 15.785156 Z M 13.671875 12.347656 "/>
</g>
<mask id="mask-1">
<g filter="url(#filter-remove-color)">
<rect x="-2.2" y="-2.2" width="26.4" height="26.4" fill="rgb(0%, 0%, 0%)" fill-opacity="0.7"/>
</g>
</mask>
<clipPath id="clip-1">
<rect x="0" y="0" width="22" height="22"/>
</clipPath>
<g id="source-8" clip-path="url(#clip-1)">
<path fill-rule="nonzero" fill="rgb(81.568629%, 52.941179%, 43.921569%)" fill-opacity="1" d="M 9.710938 9.132812 L 8.636719 12.636719 L 4.742188 13.335938 C 5.519531 14.109375 6.398438 14.839844 7.40625 15.515625 L 11.546875 14.625 L 11.609375 10.765625 C 10.863281 10.167969 10.242188 9.632812 9.710938 9.132812 Z M 9.710938 9.132812 "/>
</g>
<mask id="mask-2">
<g filter="url(#filter-remove-color)">
<rect x="-2.2" y="-2.2" width="26.4" height="26.4" fill="rgb(0%, 0%, 0%)" fill-opacity="0.6"/>
</g>
</mask>
<clipPath id="clip-2">
<rect x="0" y="0" width="22" height="22"/>
</clipPath>
<g id="source-11" clip-path="url(#clip-2)">
<path fill-rule="nonzero" fill="rgb(81.568629%, 52.941179%, 43.921569%)" fill-opacity="1" d="M 7.816406 7.136719 L 6.0625 10.125 L 2.683594 10.910156 C 3.289062 11.75 3.964844 12.5625 4.742188 13.335938 L 8.636719 12.636719 L 9.710938 9.132812 C 8.953125 8.421875 8.363281 7.785156 7.816406 7.136719 Z M 7.816406 7.136719 "/>
</g>
<mask id="mask-3">
<g filter="url(#filter-remove-color)">
<rect x="-2.2" y="-2.2" width="26.4" height="26.4" fill="rgb(0%, 0%, 0%)" fill-opacity="0.5"/>
</g>
</mask>
<clipPath id="clip-3">
<rect x="0" y="0" width="22" height="22"/>
</clipPath>
<g id="source-14" clip-path="url(#clip-3)">
<path fill-rule="nonzero" fill="rgb(81.568629%, 52.941179%, 43.921569%)" fill-opacity="1" d="M 6.496094 5.480469 L 4.472656 8.101562 L 1.390625 8.914062 C 1.785156 9.589844 2.214844 10.257812 2.683594 10.910156 L 6.0625 10.125 L 7.816406 7.136719 C 7.375 6.609375 6.957031 6.070312 6.496094 5.480469 Z M 6.496094 5.480469 "/>
</g>
<mask id="mask-4">
<g filter="url(#filter-remove-color)">
<rect x="-2.2" y="-2.2" width="26.4" height="26.4" fill="rgb(0%, 0%, 0%)" fill-opacity="0.4"/>
</g>
</mask>
<clipPath id="clip-4">
<rect x="0" y="0" width="22" height="22"/>
</clipPath>
<g id="source-17" clip-path="url(#clip-4)">
<path fill-rule="nonzero" fill="rgb(81.568629%, 52.941179%, 43.921569%)" fill-opacity="1" d="M 2.171875 2.707031 C 1.953125 2.710938 1.757812 2.753906 1.589844 2.855469 C 0.578125 3.46875 0.667969 7.613281 0.667969 7.613281 C 0.898438 8.046875 1.140625 8.484375 1.390625 8.914062 L 4.472656 8.101562 L 6.496094 5.480469 C 6.195312 5.089844 5.875 4.675781 5.515625 4.222656 C 5.515625 4.222656 3.492188 2.683594 2.171875 2.707031 Z M 2.171875 2.707031 "/>
</g>
<mask id="mask-5">
<g filter="url(#filter-remove-color)">
<rect x="-2.2" y="-2.2" width="26.4" height="26.4" fill="rgb(0%, 0%, 0%)" fill-opacity="0.85"/>
</g>
</mask>
<clipPath id="clip-5">
<rect x="0" y="0" width="22" height="22"/>
</clipPath>
<g id="source-20" clip-path="url(#clip-5)">
<path fill-rule="nonzero" fill="rgb(81.568629%, 52.941179%, 43.921569%)" fill-opacity="1" d="M 13.671875 12.347656 C 12.886719 11.769531 12.207031 11.246094 11.609375 10.765625 L 11.546875 14.625 L 7.40625 15.515625 C 8.308594 16.121094 9.316406 16.683594 10.445312 17.191406 L 13.820312 15.785156 Z M 13.671875 12.347656 "/>
</g>
<mask id="mask-6">
<g filter="url(#filter-remove-color)">
<rect x="-2.2" y="-2.2" width="26.4" height="26.4" fill="rgb(0%, 0%, 0%)" fill-opacity="0.7"/>
</g>
</mask>
<clipPath id="clip-6">
<rect x="0" y="0" width="22" height="22"/>
</clipPath>
<g id="source-23" clip-path="url(#clip-6)">
<path fill-rule="nonzero" fill="rgb(81.568629%, 52.941179%, 43.921569%)" fill-opacity="1" d="M 9.710938 9.132812 L 8.636719 12.636719 L 4.742188 13.335938 C 5.519531 14.109375 6.398438 14.839844 7.40625 15.515625 L 11.546875 14.625 L 11.609375 10.765625 C 10.863281 10.167969 10.242188 9.632812 9.710938 9.132812 Z M 9.710938 9.132812 "/>
</g>
<mask id="mask-7">
<g filter="url(#filter-remove-color)">
<rect x="-2.2" y="-2.2" width="26.4" height="26.4" fill="rgb(0%, 0%, 0%)" fill-opacity="0.6"/>
</g>
</mask>
<clipPath id="clip-7">
<rect x="0" y="0" width="22" height="22"/>
</clipPath>
<g id="source-26" clip-path="url(#clip-7)">
<path fill-rule="nonzero" fill="rgb(81.568629%, 52.941179%, 43.921569%)" fill-opacity="1" d="M 7.816406 7.136719 L 6.0625 10.125 L 2.683594 10.910156 C 3.289062 11.75 3.964844 12.5625 4.742188 13.335938 L 8.636719 12.636719 L 9.710938 9.132812 C 8.953125 8.421875 8.363281 7.785156 7.816406 7.136719 Z M 7.816406 7.136719 "/>
</g>
<mask id="mask-8">
<g filter="url(#filter-remove-color)">
<rect x="-2.2" y="-2.2" width="26.4" height="26.4" fill="rgb(0%, 0%, 0%)" fill-opacity="0.5"/>
</g>
</mask>
<clipPath id="clip-8">
<rect x="0" y="0" width="22" height="22"/>
</clipPath>
<g id="source-29" clip-path="url(#clip-8)">
<path fill-rule="nonzero" fill="rgb(81.568629%, 52.941179%, 43.921569%)" fill-opacity="1" d="M 6.496094 5.480469 L 4.472656 8.101562 L 1.390625 8.914062 C 1.785156 9.589844 2.214844 10.257812 2.683594 10.910156 L 6.0625 10.125 L 7.816406 7.136719 C 7.375 6.609375 6.957031 6.070312 6.496094 5.480469 Z M 6.496094 5.480469 "/>
</g>
<mask id="mask-9">
<g filter="url(#filter-remove-color)">
<rect x="-2.2" y="-2.2" width="26.4" height="26.4" fill="rgb(0%, 0%, 0%)" fill-opacity="0.4"/>
</g>
</mask>
<clipPath id="clip-9">
<rect x="0" y="0" width="22" height="22"/>
</clipPath>
<g id="source-32" clip-path="url(#clip-9)">
<path fill-rule="nonzero" fill="rgb(81.568629%, 52.941179%, 43.921569%)" fill-opacity="1" d="M 2.171875 2.707031 C 1.953125 2.710938 1.757812 2.753906 1.589844 2.855469 C 0.578125 3.46875 0.667969 7.613281 0.667969 7.613281 C 0.898438 8.046875 1.140625 8.484375 1.390625 8.914062 L 4.472656 8.101562 L 6.496094 5.480469 C 6.195312 5.089844 5.875 4.675781 5.515625 4.222656 C 5.515625 4.222656 3.492188 2.683594 2.171875 2.707031 Z M 2.171875 2.707031 "/>
</g>
</defs>
<path fill-rule="nonzero" fill="rgb(18.039216%, 20.392157%, 25.098041%)" fill-opacity="1" d="M 1.589844 2.855469 C 0.578125 3.46875 0.667969 7.613281 0.667969 7.613281 C 2.777344 11.609375 5.632812 15.414062 11.785156 17.746094 C 11.785156 17.746094 14.035156 17.570312 14.773438 16.632812 C 15.335938 15.914062 14.847656 13.199219 14.847656 13.199219 C 8.707031 8.816406 8.109375 7.484375 5.511719 4.222656 C 5.511719 4.222656 2.773438 2.140625 1.589844 2.855469 Z M 1.589844 2.855469 "/>
<g mask="url(#mask-0)">
<use xlink:href="#source-5"/>
</g>
<path fill-rule="nonzero" fill="rgb(81.568629%, 52.941179%, 43.921569%)" fill-opacity="1" d="M 13.671875 12.347656 L 13.820312 15.785156 L 10.445312 17.191406 C 10.875 17.386719 11.320312 17.570312 11.785156 17.746094 C 11.785156 17.746094 14.035156 17.570312 14.773438 16.632812 C 15.339844 15.914062 14.847656 13.199219 14.847656 13.199219 C 14.429688 12.902344 14.039062 12.621094 13.671875 12.347656 Z M 13.671875 12.347656 "/>
<g mask="url(#mask-1)">
<use xlink:href="#source-8"/>
</g>
<g mask="url(#mask-2)">
<use xlink:href="#source-11"/>
</g>
<g mask="url(#mask-3)">
<use xlink:href="#source-14"/>
</g>
<g mask="url(#mask-4)">
<use xlink:href="#source-17"/>
</g>
<g mask="url(#mask-5)">
<use xlink:href="#source-20"/>
</g>
<path fill-rule="nonzero" fill="rgb(81.568629%, 52.941179%, 43.921569%)" fill-opacity="1" d="M 13.671875 12.347656 L 13.820312 15.785156 L 10.445312 17.191406 C 10.875 17.386719 11.320312 17.570312 11.785156 17.746094 C 11.785156 17.746094 14.035156 17.570312 14.773438 16.632812 C 15.339844 15.914062 14.847656 13.199219 14.847656 13.199219 C 14.429688 12.902344 14.039062 12.621094 13.671875 12.347656 Z M 13.671875 12.347656 "/>
<g mask="url(#mask-6)">
<use xlink:href="#source-23"/>
</g>
<g mask="url(#mask-7)">
<use xlink:href="#source-26"/>
</g>
<g mask="url(#mask-8)">
<use xlink:href="#source-29"/>
</g>
<g mask="url(#mask-9)">
<use xlink:href="#source-32"/>
</g>
<path fill="none" stroke-width="0.31167" stroke-linecap="round" stroke-linejoin="miter" stroke="rgb(18.039216%, 20.392157%, 25.098041%)" stroke-opacity="1" stroke-miterlimit="4" d="M 21.761089 3.268329 C 23.664556 8.88675 30.338188 12.121366 30.338188 12.121366 L 34.760874 13.705459 " transform="matrix(1.528871, 0, 0, 1.528871, -31.609752, -1.899198)"/>
<path fill="none" stroke-width="0.31167" stroke-linecap="round" stroke-linejoin="miter" stroke="rgb(18.039216%, 20.392157%, 25.098041%)" stroke-opacity="1" stroke-miterlimit="4" d="M 31.099574 12.39475 C 31.431723 11.796883 31.357628 10.386529 31.357628 10.386529 " transform="matrix(1.528871, 0, 0, 1.528871, -31.609752, -1.899198)"/>
<path fill="none" stroke-width="0.31167" stroke-linecap="round" stroke-linejoin="miter" stroke="rgb(18.039216%, 20.392157%, 25.098041%)" stroke-opacity="1" stroke-miterlimit="4" d="M 31.684667 12.604259 C 32.262094 11.301215 31.881401 9.788661 31.881401 9.788661 " transform="matrix(1.528871, 0, 0, 1.528871, -31.609752, -1.899198)"/>
<path fill="none" stroke-width="0.31167" stroke-linecap="round" stroke-linejoin="miter" stroke="rgb(18.039216%, 20.392157%, 25.098041%)" stroke-opacity="1" stroke-miterlimit="4" d="M 30.660116 12.236341 C 30.223213 12.898083 29.009593 13.44996 29.009593 13.44996 " transform="matrix(1.528871, 0, 0, 1.528871, -31.609752, -1.899198)"/>
<path fill="none" stroke-width="0.31167" stroke-linecap="round" stroke-linejoin="miter" stroke="rgb(18.039216%, 20.392157%, 25.098041%)" stroke-opacity="1" stroke-miterlimit="4" d="M 31.329523 12.47651 C 30.606461 13.337541 30.202773 13.513835 30.202773 13.513835 " transform="matrix(1.528871, 0, 0, 1.528871, -31.609752, -1.899198)"/>
</svg>
